public/socials/whatsapp.svg

<svg fill="none" height="33" viewBox="0 0 32 33" width="32" xmlns="http://www.w3.org/2000/svg"><path d="m0 16.5c0 8.8366 7.16344 16 16 16 8.8366 0 16-7.1634 16-16 0-8.83656-7.1634-16-16-16-8.83656 0-16 7.16344-16 16z" fill="#25d366"/><path clip-rule="evenodd" d="m21.6 10.8c-1.5-1.5-3.5-2.3-5.6-2.3-4.4 0-8 3.6-8 8 0 1.4.40001 2.8 1.10001 4l-1.10001 4 4.2-1.1c1.2.6 2.5 1 3.8 1 4.4 0 8-3.6 8-8 0-2.1-.9-4.1-2.4-5.6zm-5.6 12.3c-1.2 0-2.4-.3-3.4-.9l-.2-.1-2.50001.7.70001-2.4-.2-.3c-.70001-1.1-1.00001-2.3-1.00001-3.5 0-3.6 3.00001-6.6 6.60001-6.6 1.8 0 3.4.7 4.7 1.9 1.3 1.3 1.9 2.9 1.9 4.7 0 3.5-2.9 6.5-6.6 6.5zm3.6-5c-.2-.1-1.2-.6-1.4-.6-.2-.1-.3-.1-.4.1s-.5.6-.6.8c-.1.1-.2.1-.4.1-.2-.1-.8-.3-1.6-1-.6-.5-1-1.2-1.1-1.4s0-.3.1-.4.2-.2.3-.3.1-.2.2-.3 0-.2 0-.3-.4-1.1-.6-1.5c-.1-.3-.3-.3-.4-.3s-.2 0-.4 0c-.1 0-.3 0-.5.2s-.7.7-.7 1.7.7 1.9.8 2.1c.1.1 1.4 2.2 3.4 3 1.7.7 2 .5 2.4.5s1.2-.5 1.3-.9c.2-.5.2-.9.1-.9-.1-.5-.3-.5-.5-.6z" fill="#fff" fill-rule="evenodd"/></svg>

<svg width="32" height="33" viewBox="0 0 32 33" fill="none" xmlns="http://www.w3.org/2000/svg">
<path d="M0 16.5C0 25.3366 7.16344 32.5 16 32.5C24.8366 32.5 32 25.3366 32 16.5C32 7.66344 24.8366 0.5 16 0.5C7.16344 0.5 0 7.66344 0 16.5Z" fill="#25D366"/>
<path fill-rule="evenodd" clip-rule="evenodd" d="M21.6 10.8C20.1 9.3 18.1 8.5 16 8.5C11.6 8.5 8 12.1 8 16.5C8 17.9 8.40001 19.3 9.10001 20.5L8 24.5L12.2 23.4C13.4 24 14.7 24.4 16 24.4C20.4 24.4 24 20.8 24 16.4C24 14.3 23.1 12.3 21.6 10.8ZM16 23.1C14.8 23.1 13.6 22.8 12.6 22.2L12.4 22.1L9.89999 22.8L10.6 20.4L10.4 20.1C9.69999 19 9.39999 17.8 9.39999 16.6C9.39999 13 12.4 10 16 10C17.8 10 19.4 10.7 20.7 11.9C22 13.2 22.6 14.8 22.6 16.6C22.6 20.1 19.7 23.1 16 23.1ZM19.6 18.1C19.4 18 18.4 17.5 18.2 17.5C18 17.4 17.9 17.4 17.8 17.6C17.7 17.8 17.3 18.2 17.2 18.4C17.1 18.5 17 18.5 16.8 18.5C16.6 18.4 16 18.2 15.2 17.5C14.6 17 14.2 16.3 14.1 16.1C14 15.9 14.1 15.8 14.2 15.7C14.3 15.6 14.4 15.5 14.5 15.4C14.6 15.3 14.6 15.2 14.7 15.1C14.8 15 14.7 14.9 14.7 14.8C14.7 14.7 14.3 13.7 14.1 13.3C14 13 13.8 13 13.7 13C13.6 13 13.5 13 13.3 13C13.2 13 13 13 12.8 13.2C12.6 13.4 12.1 13.9 12.1 14.9C12.1 15.9 12.8 16.8 12.9 17C13 17.1 14.3 19.2 16.3 20C18 20.7 18.3 20.5 18.7 20.5C19.1 20.5 19.9 20 20 19.6C20.2 19.1 20.2 18.7 20.1 18.7C20 18.2 19.8 18.2 19.6 18.1Z" fill="white"/>
</svg>
